src/assets/filled/VideoOctagon.svg

<svg width="24" height="24" viewBox="0 0 24 24"  xmlns="http://www.w3.org/2000/svg">
<path d="M19.5099 5.85L13.5699 2.42C12.5999 1.86 11.3999 1.86 10.4199 2.42L4.48992 5.85C3.51992 6.41 2.91992 7.45 2.91992 8.58V15.42C2.91992 16.54 3.51992 17.58 4.48992 18.15L10.4299 21.58C11.3999 22.14 12.5999 22.14 13.5799 21.58L19.5199 18.15C20.4899 17.59 21.0899 16.55 21.0899 15.42V8.58C21.0799 7.45 20.4799 6.42 19.5099 5.85ZM14.2499 13.4L13.2099 14L12.1699 14.6C10.8399 15.37 9.74992 14.74 9.74992 13.2V12V10.8C9.74992 9.26 10.8399 8.63 12.1699 9.4L13.2099 10L14.2499 10.6C15.5799 11.37 15.5799 12.63 14.2499 13.4Z" />
</svg>

<?xml version="1.0" encoding="UTF-8"?>
<svg width="24" height="24" viewBox="0 0 24 24" xmlns="http://www.w3.org/2000/svg">
 <path d="m19.51 5.85-5.94-3.43c-0.97-0.56-2.17-0.56-3.15 0l-5.93 3.43c-0.97 0.56-1.57 1.6-1.57 2.73v6.84c0 1.12 0.6 2.16 1.57 2.73l5.94 3.43c0.97 0.56 2.17 0.56 3.15 0l5.94-3.43c0.97-0.56 1.57-1.6 1.57-2.73v-6.84c-0.01-1.13-0.61-2.16-1.58-2.73zm-5.26 7.55-2.08 1.2c-1.33 0.77-2.42 0.14-2.42-1.4v-2.4c0-1.54 1.09-2.17 2.42-1.4l2.08 1.2c1.33 0.77 1.33 2.03 0 2.8z"/>
</svg>
